X: 152
T: Tao jinshang During the reward
%%abc-version 2.0
%%abcx-abcm2ps-target-version 5.9.1 (29 Sep 2008)
%%abc-creator hum2abc beta
%%abcx-conversion-date 2013/10/02 07:44:27
%%abc-edited-by Helmut Schaffrath
%%humdrum-veritas 1870826988
%%humdrum-veritas-data 3839247373
%%continueall 1
%%barnumbers 0
L: 1/8
M: 2/4
K: C
A3A [I:setbarnb 1]| 
d cA2 | 
E3E | 
C2A,2 | 
A3A | 
d c A G | 
E4- | 
E4 | 
A3A | 
d cA2 | 
E3E | 
C2A,2 | 
D3E | 
A2C2 | 
A,4- | 
A,4 |]  



